packages/sources/icons/src/vitamix/error-warning-line.svg

<svg width="16" height="16" viewBox="0 0 16 16" fill="none" xmlns="http://www.w3.org/2000/svg">
<path fill-rule="evenodd" clip-rule="evenodd" d="M1.33333 8C1.33333 11.682 4.318 14.6667 8 14.6667C11.682 14.6667 14.6667 11.682 14.6667 8C14.6667 4.318 11.682 1.33333 8 1.33333C4.318 1.33333 1.33333 4.318 1.33333 8ZM13.3333 7.99999C13.3333 10.9455 10.9455 13.3333 7.99999 13.3333C5.05448 13.3333 2.66666 10.9455 2.66666 7.99999C2.66666 5.05448 5.05448 2.66666 7.99999 2.66666C10.9455 2.66666 13.3333 5.05448 13.3333 7.99999ZM8.66666 10V11.3333H7.33333V10H8.66666ZM8.66666 8.66666V4.66666H7.33333V8.66666H8.66666Z" fill="#001018"/>
</svg>

<svg width="16" height="16" fill="none" xmlns="http://www.w3.org/2000/svg"><path fill-rule="evenodd" clip-rule="evenodd" d="M1.333 8a6.667 6.667 0 1 0 13.333 0A6.667 6.667 0 0 0 1.333 8zm12 0A5.333 5.333 0 1 1 2.667 8a5.333 5.333 0 0 1 10.666 0zm-4.666 2v1.333H7.333V10h1.334zm0-1.333v-4H7.333v4h1.334z" fill="#001018"/></svg>
